hunter20041220/BeyondMimic/res/tracking/robot_order_fk_warmup_seed_matched_phase_diagnostic/robot_order_fk_warmup_seed_matched_step_deltas.csv
step,old_done_count,warmup_done_count,done_count_delta,old_error_body_pos,warmup_error_body_pos,error_body_pos_delta,old_error_joint_pos,warmup_error_joint_pos,error_joint_pos_delta,old_reward_mean,warmup_reward_mean,reward_mean_delta,old_sampling_top1_bin,warmup_sampling_top1_bin,sampling_top1_bin_delta
0,2048.0,596.0,-1452.0,43.294166564941406,0.26491862535476685,-43.02924793958664,0.8668185472488403,0.9875504970550537,0.12073194980621338,0.020213397219777107,0.03187435865402222,0.01166096143424511,0.0,0.0,0.0
1,549.0,194.0,-355.0,0.24989666044712067,0.19667725265026093,-0.05321940779685974,0.9668911099433899,1.178302526473999,0.21141141653060913,0.03268544748425484,0.03283271938562393,0.00014727190136909485,0.44583335518836975,0.44583335518836975,0.0
2,205.0,203.0,-2.0,0.1873997002840042,0.1956820785999298,0.008282378315925598,1.1368381977081299,1.34873628616333,0.2118980884552002,0.0330008864402771,0.03172234073281288,-0.0012785457074642181,0.44583335518836975,0.44583335518836975,0.0
3,145.0,251.0,106.0,0.17401470243930817,0.19565656781196594,0.021641865372657776,1.3028390407562256,1.4526264667510986,0.14978742599487305,0.031837232410907745,0.03021424636244774,-0.0016229860484600067,0.44583335518836975,0.44583335518836975,0.0
4,142.0,336.0,194.0,0.17046475410461426,0.2112724483013153,0.04080769419670105,1.4393064975738525,1.5175055265426636,0.07819902896881104,0.030233021825551987,0.026297198608517647,-0.00393582321703434,0.44583335518836975,0.44583335518836975,0.0
5,215.0,401.0,186.0,0.17577457427978516,0.22048673033714294,0.04471215605735779,1.520568609237671,1.5481549501419067,0.02758634090423584,0.026388809084892273,0.022595912218093872,-0.003792896866798401,0.44583335518836975,0.44583335518836975,0.0
6,311.0,408.0,97.0,0.19171713292598724,0.22130437195301056,0.029587239027023315,1.5412476062774658,1.6206254959106445,0.07937788963317871,0.022761086001992226,0.022102871909737587,-0.0006582140922546387,0.44583335518836975,0.44583335518836975,0.0
7,319.0,373.0,54.0,0.20053690671920776,0.2203540802001953,0.01981717348098755,1.5882747173309326,1.717688798904419,0.12941408157348633,0.022372713312506676,0.021229956299066544,-0.0011427570134401321,0.44583335518836975,0.44583335518836975,0.0
8,259.0,329.0,70.0,0.19760188460350037,0.22388145327568054,0.026279568672180176,1.6971304416656494,1.8445055484771729,0.14737510681152344,0.0221866462379694,0.019954318180680275,-0.0022323280572891235,0.44583335518836975,0.44583335518836975,0.0
9,271.0,347.0,76.0,0.20950546860694885,0.23256418108940125,0.023058712482452393,1.81264066696167,1.9393835067749023,0.12674283981323242,0.02108326368033886,0.018422871828079224,-0.002660391852259636,0.44583335518836975,0.44583335518836975,0.0
10,242.0,395.0,153.0,0.2087782919406891,0.24981558322906494,0.041037291288375854,1.9072511196136475,1.9568299055099487,0.04957878589630127,0.02025390788912773,0.01708177663385868,-0.0031721312552690506,0.44583335518836975,0.44583335518836975,0.0
11,332.0,545.0,213.0,0.23071375489234924,0.27352526783943176,0.04281151294708252,1.9090995788574219,1.7997454404830933,-0.10935413837432861,0.018851421773433685,0.01634036749601364,-0.002511054277420044,0.44583335518836975,0.44583335518836975,0.0
12,456.0,643.0,187.0,0.2418506145477295,0.28831973671913147,0.04646912217140198,1.7746591567993164,1.5880582332611084,-0.186600923538208,0.01860024407505989,0.01728450320661068,-0.0013157408684492111,0.44583335518836975,0.44583335518836975,0.0
13,527.0,599.0,72.0,0.25227510929107666,0.2862256169319153,0.03395050764083862,1.5797646045684814,1.5037403106689453,-0.07602429389953613,0.019818171858787537,0.01975928619503975,-5.8885663747787476e-05,0.44583335518836975,0.44583335518836975,0.0
14,443.0,511.0,68.0,0.25132885575294495,0.25979936122894287,0.008470505475997925,1.5228757858276367,1.480027437210083,-0.04284834861755371,0.021869318559765816,0.020737366750836372,-0.0011319518089294434,0.44583335518836975,0.44583335518836975,0.0
15,405.0,481.0,76.0,0.2309897541999817,0.2508193254470825,0.01982957124710083,1.49839448928833,1.4798407554626465,-0.018553733825683594,0.021931996569037437,0.021109048277139664,-0.0008229482918977737,0.44583335518836975,0.44583335518836975,0.0
16,374.0,449.0,75.0,0.21273097395896912,0.24392342567443848,0.03119245171546936,1.5079636573791504,1.4911093711853027,-0.016854286193847656,0.022036977112293243,0.021256782114505768,-0.0007801949977874756,0.44583335518836975,0.44583335518836975,0.0
17,349.0,451.0,102.0,0.21207895874977112,0.2353825569152832,0.023303598165512085,1.5271573066711426,1.5025084018707275,-0.02464890480041504,0.021601766347885132,0.021711135283112526,0.0001093689352273941,0.44583335518836975,0.44583335518836975,0.0
18,347.0,414.0,67.0,0.21054020524024963,0.23731058835983276,0.02677038311958313,1.5288727283477783,1.5232065916061401,-0.005666136741638184,0.021417206153273582,0.02115950547158718,-0.00025770068168640137,0.44583335518836975,0.44583335518836975,0.0
19,336.0,444.0,108.0,0.20923969149589539,0.2463199645280838,0.037080273032188416,1.5384361743927002,1.5341482162475586,-0.0042879581451416016,0.021595969796180725,0.02057700976729393,-0.001018960028886795,0.44583335518836975,0.44583335518836975,0.0
20,348.0,443.0,95.0,0.2098134458065033,0.24106313288211823,0.03124968707561493,1.5700793266296387,1.5491777658462524,-0.02090156078338623,0.021447256207466125,0.020818611606955528,-0.0006286446005105972,0.44583335518836975,0.44583335518836975,0.0
21,337.0,443.0,106.0,0.22465786337852478,0.2428799718618393,0.018222108483314514,1.5898308753967285,1.56473970413208,-0.025091171264648438,0.02153322845697403,0.020905962213873863,-0.0006272662431001663,0.44583335518836975,0.44583335518836975,0.0
22,332.0,452.0,120.0,0.2151951640844345,0.24668411910533905,0.03148895502090454,1.62706458568573,1.5797154903411865,-0.04734909534454346,0.020847655832767487,0.02078263834118843,-6.501749157905579e-05,0.44583335518836975,0.44583335518836975,0.0
23,343.0,475.0,132.0,0.21100139617919922,0.24533997476100922,0.03433857858181,1.6353204250335693,1.5705021619796753,-0.06481826305389404,0.020383495837450027,0.02044336497783661,5.986914038658142e-05,0.44583335518836975,0.44583335518836975,0.0
24,355.0,479.0,124.0,0.21561245620250702,0.24680933356285095,0.031196877360343933,1.645353078842163,1.5573689937591553,-0.08798408508300781,0.020677126944065094,0.020610693842172623,-6.643310189247131e-05,0.44583335518836975,0.44583335518836975,0.0
25,365.0,479.0,114.0,0.21462984383106232,0.25253117084503174,0.03790132701396942,1.627760648727417,1.5466645956039429,-0.08109605312347412,0.02058570832014084,0.020844725891947746,0.00025901757180690765,0.44583335518836975,0.44583335518836975,0.0
26,387.0,450.0,63.0,0.22113755345344543,0.2463611513376236,0.02522359788417816,1.5836049318313599,1.5724847316741943,-0.011120200157165527,0.02077982947230339,0.02089214324951172,0.00011231377720832825,0.44583335518836975,0.44583335518836975,0.0
27,372.0,460.0,88.0,0.22744043171405792,0.23204666376113892,0.004606232047080994,1.5781915187835693,1.562352180480957,-0.015839338302612305,0.021245844662189484,0.020194020122289658,-0.001051824539899826,0.44583335518836975,0.44583335518836975,0.0
28,368.0,466.0,98.0,0.21918568015098572,0.253856360912323,0.03467068076133728,1.571845531463623,1.5454356670379639,-0.02640986442565918,0.020751385018229485,0.02012099325656891,-0.0006303917616605759,0.44583335518836975,0.44583335518836975,0.0
29,347.0,457.0,110.0,0.21345475316047668,0.2480715811252594,0.034616827964782715,1.5780279636383057,1.5628383159637451,-0.015189647674560547,0.020309103652834892,0.020180853083729744,-0.00012825056910514832,0.44583335518836975,0.44583335518836975,0.0
30,338.0,437.0,99.0,0.2138786017894745,0.24449791014194489,0.030619308352470398,1.5755666494369507,1.5712008476257324,-0.004365801811218262,0.020268242806196213,0.019692040979862213,-0.0005762018263339996,0.44583335518836975,0.44583335518836975,0.0
31,365.0,458.0,93.0,0.21771763265132904,0.24199330806732178,0.024275675415992737,1.5764176845550537,1.5712852478027344,-0.005132436752319336,0.019768647849559784,0.019333716481924057,-0.00043493136763572693,0.44583335518836975,0.44583335518836975,0.0
32,348.0,448.0,100.0,0.21269258856773376,0.2404252290725708,0.027732640504837036,1.5799415111541748,1.5619220733642578,-0.018019437789916992,0.01964910700917244,0.019628698006272316,-2.0409002900123596e-05,0.44583335518836975,0.44583335518836975,0.0
33,366.0,473.0,107.0,0.22356753051280975,0.25332385301589966,0.029756322503089905,1.5875589847564697,1.5496025085449219,-0.03795647621154785,0.019940514117479324,0.01909293606877327,-0.0008475780487060547,0.44583335518836975,0.44583335518836975,0.0
34,400.0,446.0,46.0,0.2242514044046402,0.24065279960632324,0.016401395201683044,1.57315194606781,1.5490628480911255,-0.02408909797668457,0.019620196893811226,0.019978364929556847,0.00035816803574562073,0.44583335518836975,0.44583335518836975,0.0
35,378.0,454.0,76.0,0.21735413372516632,0.24897898733615875,0.03162485361099243,1.5753346681594849,1.555433988571167,-0.01990067958831787,0.020654339343309402,0.019472721964120865,-0.0011816173791885376,0.44583335518836975,0.44583335518836975,0.0
36,333.0,457.0,124.0,0.2055942416191101,0.2514345347881317,0.045840293169021606,1.5971388816833496,1.5751216411590576,-0.022017240524291992,0.02055523917078972,0.019437000155448914,-0.001118239015340805,0.44583335518836975,0.44583335518836975,0.0
37,322.0,480.0,158.0,0.214732825756073,0.2633969783782959,0.0486641526222229,1.639540195465088,1.5664799213409424,-0.07306027412414551,0.02023370936512947,0.01914948783814907,-0.0010842215269804,0.44583335518836975,0.44583335518836975,0.0
38,396.0,460.0,64.0,0.22846218943595886,0.25518494844436646,0.026722759008407593,1.605330467224121,1.5736567974090576,-0.03167366981506348,0.019421618431806564,0.018996257334947586,-0.00042536109685897827,0.44583335518836975,0.44583335518836975,0.0
39,362.0,495.0,133.0,0.21587762236595154,0.25533804297447205,0.03946042060852051,1.6238532066345215,1.5573856830596924,-0.0664675235748291,0.020049279555678368,0.019053990021348,-0.000995289534330368,0.44583335518836975,0.44583335518836975,0.0
40,371.0,484.0,113.0,0.22359834611415863,0.24794825911521912,0.024349913001060486,1.597549557685852,1.5490138530731201,-0.048535704612731934,0.020092599093914032,0.019513791427016258,-0.0005788076668977737,0.44583335518836975,0.44583335518836975,0.0
41,358.0,467.0,109.0,0.21979710459709167,0.24560917913913727,0.025812074542045593,1.5866366624832153,1.5633670091629028,-0.0232696533203125,0.02024674043059349,0.019826296716928482,-0.00042044371366500854,0.44583335518836975,0.44583335518836975,0.0
42,394.0,486.0,92.0,0.22288785874843597,0.2447042167186737,0.021816357970237732,1.549904704093933,1.5463180541992188,-0.0035866498947143555,0.02084105648100376,0.019302036613225937,-0.0015390198677778244,0.44583335518836975,0.44583335518836975,0.0
43,363.0,476.0,113.0,0.21693789958953857,0.25446510314941406,0.03752720355987549,1.5493128299713135,1.5387548208236694,-0.010558009147644043,0.021820124238729477,0.020138859748840332,-0.001681264489889145,0.44583335518836975,0.44583335518836975,0.0
44,341.0,444.0,103.0,0.20603279769420624,0.24701431393623352,0.04098151624202728,1.5644569396972656,1.5560531616210938,-0.008403778076171875,0.02152354270219803,0.02009565941989422,-0.0014278832823038101,0.44583335518836975,0.44583335518836975,0.0
45,310.0,463.0,153.0,0.20827817916870117,0.24076403677463531,0.03248585760593414,1.600690245628357,1.556861162185669,-0.04382908344268799,0.021500397473573685,0.019495731219649315,-0.00200466625392437,0.44583335518836975,0.44583335518836975,0.0
46,379.0,451.0,72.0,0.22133702039718628,0.24103692173957825,0.019699901342391968,1.5697402954101562,1.5533876419067383,-0.01635265350341797,0.020928263664245605,0.019120045006275177,-0.0018082186579704285,0.44583335518836975,0.44583335518836975,0.0
47,372.0,455.0,83.0,0.21556521952152252,0.23963621258735657,0.024070993065834045,1.5549490451812744,1.539902687072754,-0.015046358108520508,0.021118436008691788,0.01944553479552269,-0.001672901213169098,0.44583335518836975,0.44583335518836975,0.0
48,351.0,424.0,73.0,0.21478596329689026,0.2285463511943817,0.013760387897491455,1.574999213218689,1.557194709777832,-0.017804503440856934,0.02094477042555809,0.019814588129520416,-0.001130182296037674,0.44583335518836975,0.44583335518836975,0.0
49,363.0,428.0,65.0,0.21154169738292694,0.23145459592342377,0.019912898540496826,1.5926538705825806,1.5519537925720215,-0.04070007801055908,0.02128947153687477,0.019492458552122116,-0.001797012984752655,0.44583335518836975,0.44583335518836975,0.0
50,342.0,459.0,117.0,0.21139350533485413,0.23985710740089417,0.02846360206604004,1.6075549125671387,1.5604939460754395,-0.04706096649169922,0.020667044445872307,0.01979789510369301,-0.0008691493421792984,0.44583335518836975,0.44583335518836975,0.0
51,350.0,429.0,79.0,0.2150391936302185,0.24491751194000244,0.029878318309783936,1.6184933185577393,1.571852207183838,-0.04664111137390137,0.01985267922282219,0.019516220316290855,-0.0003364589065313339,0.44583335518836975,0.44583335518836975,0.0
52,376.0,474.0,98.0,0.22049179673194885,0.243413507938385,0.022921711206436157,1.6055915355682373,1.5650748014450073,-0.04051673412322998,0.019577093422412872,0.019592445343732834,1.5351921319961548e-05,0.44583335518836975,0.44583335518836975,0.0
53,358.0,469.0,111.0,0.21797044575214386,0.25151896476745605,0.033548519015312195,1.6165374517440796,1.5488412380218506,-0.067696213722229,0.019852207973599434,0.01988822966814041,3.602169454097748e-05,0.44583335518836975,0.44583335518836975,0.0
54,357.0,462.0,105.0,0.21676218509674072,0.2562922239303589,0.039530038833618164,1.5980333089828491,1.5507465600967407,-0.0472867488861084,0.019955195486545563,0.019714705646038055,-0.00024048984050750732,0.44583335518836975,0.44583335518836975,0.0
55,382.0,460.0,78.0,0.22586649656295776,0.25256800651550293,0.026701509952545166,1.568199872970581,1.5495390892028809,-0.018660783767700195,0.0200502946972847,0.019503401592373848,-0.0005468931049108505,0.44583335518836975,0.44583335518836975,0.0
56,358.0,456.0,98.0,0.21533732116222382,0.246307373046875,0.030970051884651184,1.5672080516815186,1.5535743236541748,-0.01363372802734375,0.02071361616253853,0.019689906388521194,-0.001023709774017334,0.44583335518836975,0.44583335518836975,0.0
57,359.0,437.0,78.0,0.2242678999900818,0.24137358367443085,0.01710568368434906,1.5567855834960938,1.559769868850708,0.002984285354614258,0.020688358694314957,0.01969434693455696,-0.0009940117597579956,0.44583335518836975,0.44583335518836975,0.0
58,348.0,467.0,119.0,0.2247714102268219,0.2432953119277954,0.01852390170097351,1.558036208152771,1.5663762092590332,0.008340001106262207,0.02073415368795395,0.019169824197888374,-0.0015643294900655746,0.44583335518836975,0.44583335518836975,0.0
59,341.0,445.0,104.0,0.21697285771369934,0.23848319053649902,0.021510332822799683,1.5655810832977295,1.5687199831008911,0.003138899803161621,0.020804353058338165,0.019027013331651688,-0.0017773397266864777,0.44583335518836975,0.44583335518836975,0.0
60,334.0,486.0,152.0,0.21075302362442017,0.2460555136203766,0.03530248999595642,1.5789684057235718,1.5476754903793335,-0.03129291534423828,0.020817067474126816,0.018722403794527054,-0.002094663679599762,0.44583335518836975,0.44583335518836975,0.0
61,357.0,487.0,130.0,0.20997293293476105,0.25234919786453247,0.04237626492977142,1.5996617078781128,1.5272703170776367,-0.07239139080047607,0.019850831478834152,0.019044997170567513,-0.0008058343082666397,0.44583335518836975,0.44583335518836975,0.0
62,349.0,494.0,145.0,0.20794902741909027,0.2596982419490814,0.05174921452999115,1.6146503686904907,1.52923583984375,-0.08541452884674072,0.020333126187324524,0.019136551767587662,-0.0011965744197368622,0.44583335518836975,0.44583335518836975,0.0
63,369.0,474.0,105.0,0.21728000044822693,0.24147944152355194,0.024199441075325012,1.606489658355713,1.5384531021118164,-0.06803655624389648,0.02004517987370491,0.019640594720840454,-0.0004045851528644562,0.44583335518836975,0.44583335518836975,0.0
64,361.0,474.0,113.0,0.22295145690441132,0.24917122721672058,0.026219770312309265,1.6077256202697754,1.5609452724456787,-0.04678034782409668,0.02008271962404251,0.01984291709959507,-0.0002398025244474411,0.44583335518836975,0.44583335518836975,0.0
65,356.0,460.0,104.0,0.21286669373512268,0.2486807256937027,0.03581403195858002,1.6134065389633179,1.5560652017593384,-0.05734133720397949,0.020139701664447784,0.01955551654100418,-0.0005841851234436035,0.44583335518836975,0.44583335518836975,0.0
66,371.0,476.0,105.0,0.21641689538955688,0.25643253326416016,0.04001563787460327,1.595599889755249,1.5489234924316406,-0.0466763973236084,0.020184971392154694,0.01966235414147377,-0.0005226172506809235,0.44583335518836975,0.44583335518836975,0.0
67,356.0,517.0,161.0,0.22243167459964752,0.24844814836978912,0.0260164737701416,1.5893776416778564,1.515202283859253,-0.07417535781860352,0.02037382498383522,0.020088430494070053,-0.00028539448976516724,0.44583335518836975,0.44583335518836975,0.0
68,342.0,501.0,159.0,0.22121281921863556,0.2540658116340637,0.03285299241542816,1.5800011157989502,1.5058952569961548,-0.07410585880279541,0.02052196115255356,0.020876791328191757,0.00035483017563819885,0.44583335518836975,0.44583335518836975,0.0
69,364.0,436.0,72.0,0.21684744954109192,0.24272604286670685,0.02587859332561493,1.5540333986282349,1.5190412998199463,-0.034992098808288574,0.020470719784498215,0.020921967923641205,0.0004512481391429901,0.44583335518836975,0.44583335518836975,0.0
70,369.0,448.0,79.0,0.21859750151634216,0.2479831576347351,0.029385656118392944,1.5391960144042969,1.532499074935913,-0.006696939468383789,0.02094154804944992,0.02096495032310486,2.3402273654937744e-05,0.44583335518836975,0.44583335518836975,0.0
71,357.0,471.0,114.0,0.21928226947784424,0.24789151549339294,0.028609246015548706,1.5543960332870483,1.5340570211410522,-0.020339012145996094,0.020895695313811302,0.02033904939889908,-0.0005566459149122238,0.44583335518836975,0.44583335518836975,0.0
72,351.0,450.0,99.0,0.21211938560009003,0.24396423995494843,0.0318448543548584,1.5509397983551025,1.5560970306396484,0.0051572322845458984,0.02086404711008072,0.019893981516361237,-0.0009700655937194824,0.44583335518836975,0.44583335518836975,0.0
73,340.0,436.0,96.0,0.20913296937942505,0.24448780715465546,0.03535483777523041,1.5656459331512451,1.567166805267334,0.0015208721160888672,0.02099219150841236,0.019937684759497643,-0.0010545067489147186,0.44583335518836975,0.44583335518836975,0.0
74,362.0,462.0,100.0,0.21350973844528198,0.23858642578125,0.025076687335968018,1.5560253858566284,1.5559945106506348,-3.0875205993652344e-05,0.020497046411037445,0.019415535032749176,-0.001081511378288269,0.44583335518836975,0.44583335518836975,0.0
75,371.0,422.0,51.0,0.21083027124404907,0.22732116281986237,0.016490891575813293,1.559206485748291,1.578823447227478,0.01961696147918701,0.02089439332485199,0.019843172281980515,-0.0010512210428714752,0.44583335518836975,0.44583335518836975,0.0
76,337.0,457.0,120.0,0.20228484272956848,0.2391095757484436,0.03682473301887512,1.5821958780288696,1.5685272216796875,-0.013668656349182129,0.020785687491297722,0.019568396732211113,-0.0012172907590866089,0.44583335518836975,0.44583335518836975,0.0
77,362.0,481.0,119.0,0.21798580884933472,0.24052794277668,0.022542133927345276,1.5767961740493774,1.564346194267273,-0.012449979782104492,0.02083231508731842,0.01955634355545044,-0.001275971531867981,0.44583335518836975,0.44583335518836975,0.0
78,321.0,460.0,139.0,0.2090318351984024,0.2411741018295288,0.032142266631126404,1.6058368682861328,1.5495686531066895,-0.05626821517944336,0.020596493035554886,0.020013507455587387,-0.0005829855799674988,0.44583335518836975,0.44583335518836975,0.0
79,324.0,442.0,118.0,0.2098921239376068,0.23808154463768005,0.028189420700073242,1.6044100522994995,1.5581285953521729,-0.04628145694732666,0.020005013793706894,0.020221713930368423,0.00021670013666152954,0.44583335518836975,0.44583335518836975,0.0
80,379.0,459.0,80.0,0.2287730574607849,0.23914580047130585,0.010372743010520935,1.5787252187728882,1.5366580486297607,-0.04206717014312744,0.019962776452302933,0.019867435097694397,-9.534135460853577e-05,0.44583335518836975,0.44583335518836975,0.0
81,381.0,478.0,97.0,0.223256915807724,0.24982377886772156,0.02656686305999756,1.562847375869751,1.5468251705169678,-0.016022205352783203,0.02042010799050331,0.020099060609936714,-0.000321047380566597,0.44583335518836975,0.44583335518836975,0.0
82,387.0,439.0,52.0,0.22093762457370758,0.23995095491409302,0.019013330340385437,1.575688362121582,1.5635182857513428,-0.012170076370239258,0.02081213891506195,0.019918495789170265,-0.0008936431258916855,0.44583335518836975,0.44583335518836975,0.0
83,407.0,448.0,41.0,0.221573606133461,0.24396780133247375,0.022394195199012756,1.550438642501831,1.5551583766937256,0.004719734191894531,0.020771384239196777,0.0196841973811388,-0.0010871868580579758,0.44583335518836975,0.44583335518836975,0.0
84,386.0,439.0,53.0,0.21969786286354065,0.24848496913909912,0.02878710627555847,1.5472784042358398,1.5655896663665771,0.018311262130737305,0.02153128571808338,0.019989334046840668,-0.001541951671242714,0.44583335518836975,0.44583335518836975,0.0
85,341.0,440.0,99.0,0.21380957961082458,0.25091496109962463,0.03710538148880005,1.5604673624038696,1.5758957862854004,0.015428423881530762,0.021562453359365463,0.01996491104364395,-0.0015975423157215118,0.44583335518836975,0.44583335518836975,0.0
86,344.0,452.0,108.0,0.2102268785238266,0.24855904281139374,0.03833216428756714,1.569092869758606,1.5620789527893066,-0.007013916969299316,0.021256498992443085,0.020025283098220825,-0.0012312158942222595,0.44583335518836975,0.44583335518836975,0.0
87,344.0,453.0,109.0,0.22365371882915497,0.24382519721984863,0.020171478390693665,1.5701345205307007,1.5650641918182373,-0.005070328712463379,0.020830798894166946,0.020234767347574234,-0.0005960315465927124,0.44583335518836975,0.44583335518836975,0.0
88,384.0,458.0,74.0,0.23019307851791382,0.25105372071266174,0.020860642194747925,1.5583359003067017,1.5681270360946655,0.009791135787963867,0.02051680162549019,0.02013910561800003,-0.0003776960074901581,0.44583335518836975,0.44583335518836975,0.0
89,377.0,474.0,97.0,0.22016969323158264,0.24213698506355286,0.021967291831970215,1.5595262050628662,1.561577320098877,0.002051115036010742,0.02131040208041668,0.019727962091565132,-0.0015824399888515472,0.44583335518836975,0.44583335518836975,0.0
90,342.0,461.0,119.0,0.22106902301311493,0.24868562817573547,0.027616605162620544,1.5760753154754639,1.5648049116134644,-0.011270403861999512,0.02128250151872635,0.01973637379705906,-0.0015461277216672897,0.44583335518836975,0.44583335518836975,0.0
91,358.0,452.0,94.0,0.21618978679180145,0.2515888512134552,0.03539906442165375,1.5871273279190063,1.5788230895996094,-0.008304238319396973,0.020916517823934555,0.019572049379348755,-0.0013444684445858002,0.44583335518836975,0.44583335518836975,0.0
92,352.0,439.0,87.0,0.2181367576122284,0.2375611960887909,0.0194244384765625,1.5970722436904907,1.5918567180633545,-0.0052155256271362305,0.020974060520529747,0.019964197650551796,-0.001009862869977951,0.44583335518836975,0.44583335518836975,0.0
93,348.0,462.0,114.0,0.21959257125854492,0.24360603094100952,0.0240134596824646,1.5994470119476318,1.570486307144165,-0.028960704803466797,0.020312923938035965,0.020208168774843216,-0.00010475516319274902,0.44583335518836975,0.44583335518836975,0.0
94,364.0,480.0,116.0,0.21254077553749084,0.25288331508636475,0.0403425395488739,1.576995611190796,1.5407850742340088,-0.03621053695678711,0.020341206341981888,0.02012927457690239,-0.0002119317650794983,0.44583335518836975,0.44583335518836975,0.0
95,354.0,475.0,121.0,0.22171416878700256,0.2452828586101532,0.023568689823150635,1.5807956457138062,1.5359256267547607,-0.04487001895904541,0.020980065688490868,0.01944611221551895,-0.0015339534729719162,0.44583335518836975,0.44583335518836975,0.0
96,376.0,473.0,97.0,0.22450172901153564,0.24161356687545776,0.01711183786392212,1.568748950958252,1.5351510047912598,-0.03359794616699219,0.020889123901724815,0.01932695508003235,-0.0015621688216924667,0.44583335518836975,0.44583335518836975,0.0
97,362.0,449.0,87.0,0.22186647355556488,0.23597723245620728,0.014110758900642395,1.5525788068771362,1.5397905111312866,-0.01278829574584961,0.021106012165546417,0.019749373197555542,-0.0013566389679908752,0.44583335518836975,0.44583335518836975,0.0
98,339.0,455.0,116.0,0.21406501531600952,0.23874951899051666,0.02468450367450714,1.5494132041931152,1.5386124849319458,-0.010800719261169434,0.02161286026239395,0.01970951445400715,-0.0019033458083868027,0.44583335518836975,0.44583335518836975,0.0
99,346.0,450.0,104.0,0.21604222059249878,0.23753729462623596,0.021495074033737183,1.5752339363098145,1.5419139862060547,-0.033319950103759766,0.02158052660524845,0.01969459280371666,-0.0018859338015317917,0.44583335518836975,0.44583335518836975,0.0
100,347.0,431.0,84.0,0.210502028465271,0.2338845431804657,0.023382514715194702,1.5905705690383911,1.5514607429504395,-0.03910982608795166,0.02121737413108349,0.019979804754257202,-0.0012375693768262863,0.44583335518836975,0.44583335518836975,0.0
101,364.0,458.0,94.0,0.20824703574180603,0.23388081789016724,0.025633782148361206,1.5844275951385498,1.5460700988769531,-0.03835749626159668,0.021118128672242165,0.02012176811695099,-0.0009963605552911758,0.44583335518836975,0.44583335518836975,0.0
102,369.0,446.0,77.0,0.22131741046905518,0.23215967416763306,0.01084226369857788,1.5757784843444824,1.5575497150421143,-0.018228769302368164,0.02098764106631279,0.020484253764152527,-0.0005033873021602631,0.44583335518836975,0.44583335518836975,0.0
103,369.0,477.0,108.0,0.21402324736118317,0.2549290657043457,0.04090581834316254,1.5726797580718994,1.5294702053070068,-0.04320955276489258,0.02114740014076233,0.020310908555984497,-0.000836491584777832,0.44583335518836975,0.44583335518836975,0.0
104,363.0,493.0,130.0,0.22307443618774414,0.25184500217437744,0.0287705659866333,1.5741146802902222,1.529417634010315,-0.04469704627990723,0.021200548857450485,0.020419461652636528,-0.0007810872048139572,0.44583335518836975,0.44583335518836975,0.0
105,343.0,430.0,87.0,0.2269410490989685,0.23606804013252258,0.009126991033554077,1.589705228805542,1.5678130388259888,-0.021892189979553223,0.020754151046276093,0.020551130175590515,-0.0002030208706855774,0.44583335518836975,0.44583335518836975,0.0
106,367.0,444.0,77.0,0.21974095702171326,0.24091890454292297,0.021177947521209717,1.581615686416626,1.559916377067566,-0.02169930934906006,0.01999049261212349,0.019815724343061447,-0.00017476826906204224,0.44583335518836975,0.44583335518836975,0.0
107,362.0,442.0,80.0,0.21900497376918793,0.24383577704429626,0.024830803275108337,1.5865700244903564,1.5519731044769287,-0.034596920013427734,0.020266391336917877,0.019467882812023163,-0.0007985085248947144,0.44583335518836975,0.44583335518836975,0.0
108,380.0,485.0,105.0,0.21219918131828308,0.24421000480651855,0.032010823488235474,1.5620614290237427,1.5333757400512695,-0.028685688972473145,0.020534757524728775,0.019362473860383034,-0.0011722836643457413,0.44583335518836975,0.44583335518836975,0.0
109,370.0,461.0,91.0,0.21595460176467896,0.24688610434532166,0.0309315025806427,1.5581164360046387,1.5439808368682861,-0.014135599136352539,0.02090585045516491,0.019574373960494995,-0.0013314764946699142,0.44583335518836975,0.44583335518836975,0.0
110,350.0,461.0,111.0,0.21529600024223328,0.2515445351600647,0.03624853491783142,1.561282753944397,1.5372406244277954,-0.024042129516601562,0.020918717607855797,0.01990937627851963,-0.0010093413293361664,0.44583335518836975,0.44583335518836975,0.0
111,350.0,431.0,81.0,0.21070793271064758,0.248041570186615,0.03733363747596741,1.5562961101531982,1.547898530960083,-0.008397579193115234,0.020818529650568962,0.019874315708875656,-0.000944213941693306,0.44583335518836975,0.44583335518836975,0.0
112,354.0,443.0,89.0,0.21438747644424438,0.24431967735290527,0.02993220090866089,1.5699853897094727,1.5557684898376465,-0.014216899871826172,0.02069379761815071,0.019835833460092545,-0.0008579641580581665,0.44583335518836975,0.44583335518836975,0.0
113,357.0,447.0,90.0,0.21039631962776184,0.24728170037269592,0.03688538074493408,1.566240668296814,1.5493806600570679,-0.016860008239746094,0.020307041704654694,0.019511263817548752,-0.0007957778871059418,0.44583335518836975,0.44583335518836975,0.0
114,346.0,438.0,92.0,0.21765127778053284,0.2441825419664383,0.026531264185905457,1.5762760639190674,1.5419106483459473,-0.03436541557312012,0.02042568102478981,0.019230898469686508,-0.001194782555103302,0.44583335518836975,0.44583335518836975,0.0
115,371.0,454.0,83.0,0.2245466709136963,0.2570763826370239,0.03252971172332764,1.5768197774887085,1.5441837310791016,-0.032636046409606934,0.020514488220214844,0.019680647179484367,-0.0008338410407304764,0.44583335518836975,0.44583335518836975,0.0
116,393.0,469.0,76.0,0.2172485589981079,0.2464805394411087,0.029231980443000793,1.570756435394287,1.5390315055847168,-0.03172492980957031,0.020511742681264877,0.01989886164665222,-0.0006128810346126556,0.44583335518836975,0.44583335518836975,0.0
117,330.0,470.0,140.0,0.21354708075523376,0.24400660395622253,0.03045952320098877,1.600406527519226,1.5494389533996582,-0.05096757411956787,0.020295046269893646,0.02000320330262184,-0.0002918429672718048,0.44583335518836975,0.44583335518836975,0.0
118,337.0,429.0,92.0,0.20945169031620026,0.23780830204486847,0.028356611728668213,1.60960054397583,1.5591795444488525,-0.05042099952697754,0.019611861556768417,0.02030583843588829,0.000693976879119873,0.44583335518836975,0.44583335518836975,0.0
119,354.0,461.0,107.0,0.21816343069076538,0.24673642218112946,0.028572991490364075,1.618861198425293,1.5443757772445679,-0.0744854211807251,0.019352838397026062,0.02025284804403782,0.0009000096470117569,0.44583335518836975,0.44583335518836975,0.0
120,361.0,494.0,133.0,0.2262367159128189,0.25567495822906494,0.029438242316246033,1.6226441860198975,1.5380685329437256,-0.08457565307617188,0.019178299233317375,0.02021333947777748,0.001035040244460106,0.44583335518836975,0.44583335518836975,0.0
121,385.0,457.0,72.0,0.2257939577102661,0.24964818358421326,0.023854225873947144,1.6073883771896362,1.5324909687042236,-0.0748974084854126,0.01899450086057186,0.02036220207810402,0.001367701217532158,0.44583335518836975,0.44583335518836975,0.0
122,355.0,448.0,93.0,0.21807420253753662,0.24131476879119873,0.02324056625366211,1.6134628057479858,1.5444090366363525,-0.0690537691116333,0.019414246082305908,0.020299941301345825,0.000885695219039917,0.44583335518836975,0.44583335518836975,0.0
123,404.0,459.0,55.0,0.22370947897434235,0.24849572777748108,0.024786248803138733,1.5717440843582153,1.5352357625961304,-0.03650832176208496,0.019168153405189514,0.020605266094207764,0.0014371126890182495,0.44583335518836975,0.44583335518836975,0.0
124,400.0,482.0,82.0,0.21952012181282043,0.24558159708976746,0.02606147527694702,1.538953423500061,1.5252306461334229,-0.013722777366638184,0.019886454567313194,0.020618556067347527,0.0007321015000343323,0.44583335518836975,0.44583335518836975,0.0
125,370.0,456.0,86.0,0.21856233477592468,0.24317613244056702,0.024613797664642334,1.5495331287384033,1.5140252113342285,-0.035507917404174805,0.02074863761663437,0.02060934156179428,-0.0001392960548400879,0.44583335518836975,0.44583335518836975,0.0
126,341.0,425.0,84.0,0.20900356769561768,0.2306162416934967,0.02161267399787903,1.5637118816375732,1.534071922302246,-0.02963995933532715,0.020600667223334312,0.021239545196294785,0.0006388779729604721,0.44583335518836975,0.44583335518836975,0.0
127,352.0,432.0,80.0,0.21538448333740234,0.23280569911003113,0.017421215772628784,1.571697473526001,1.5362548828125,-0.03544259071350098,0.02023380436003208,0.020666541531682014,0.00043273717164993286,0.44583335518836975,0.44583335518836975,0.0
128,345.0,430.0,85.0,0.20776252448558807,0.2361115962266922,0.028349071741104126,1.5824133157730103,1.543290615081787,-0.039122700691223145,0.02022038772702217,0.02078593708574772,0.0005655493587255478,0.44583335518836975,0.44583335518836975,0.0
129,352.0,453.0,101.0,0.21333280205726624,0.2387312799692154,0.025398477911949158,1.583929419517517,1.5274289846420288,-0.05650043487548828,0.020021038129925728,0.020722445100545883,0.0007014069706201553,0.44583335518836975,0.44583335518836975,0.0
130,379.0,455.0,76.0,0.21249887347221375,0.24594104290008545,0.033442169427871704,1.5740821361541748,1.5228769779205322,-0.05120515823364258,0.020101947709918022,0.020829886198043823,0.0007279384881258011,0.44583335518836975,0.44583335518836975,0.0
131,343.0,466.0,123.0,0.2114265263080597,0.2567436099052429,0.04531708359718323,1.5861691236495972,1.5339653491973877,-0.05220377445220947,0.020252930000424385,0.02041267603635788,0.00015974603593349457,0.44583335518836975,0.44583335518836975,0.0
132,354.0,432.0,78.0,0.21832749247550964,0.24792149662971497,0.029594004154205322,1.581876516342163,1.5620344877243042,-0.019842028617858887,0.020102038979530334,0.02022651955485344,0.00012448057532310486,0.44583335518836975,0.44583335518836975,0.0
133,344.0,434.0,90.0,0.2229921966791153,0.23689338564872742,0.013901188969612122,1.5878028869628906,1.5737395286560059,-0.014063358306884766,0.020207282155752182,0.020265981554985046,5.869939923286438e-05,0.44583335518836975,0.44583335518836975,0.0
134,354.0,439.0,85.0,0.21869778633117676,0.24627076089382172,0.02757297456264496,1.5781073570251465,1.5814704895019531,0.0033631324768066406,0.019975755363702774,0.01974807307124138,-0.00022768229246139526,0.44583335518836975,0.44583335518836975,0.0
135,365.0,414.0,49.0,0.216966912150383,0.2381458878517151,0.021178975701332092,1.5674681663513184,1.602237582206726,0.034769415855407715,0.02007642574608326,0.01982710510492325,-0.0002493206411600113,0.44583335518836975,0.44583335518836975,0.0
136,374.0,461.0,87.0,0.2224602997303009,0.24716252088546753,0.024702221155166626,1.5758097171783447,1.5794118642807007,0.003602147102355957,0.020060189068317413,0.019504066556692123,-0.0005561225116252899,0.44583335518836975,0.44583335518836975,0.0
137,375.0,452.0,77.0,0.2235361933708191,0.24573709070682526,0.022200897336006165,1.5655081272125244,1.5685813426971436,0.0030732154846191406,0.019985003396868706,0.019727252423763275,-0.0002577509731054306,0.44583335518836975,0.44583335518836975,0.0
138,388.0,465.0,77.0,0.22300636768341064,0.24200421571731567,0.01899784803390503,1.5489492416381836,1.5505598783493042,0.0016106367111206055,0.020391855388879776,0.01968543604016304,-0.0007064193487167358,0.44583335518836975,0.44583335518836975,0.0
139,351.0,467.0,116.0,0.2236459106206894,0.2363322675228119,0.012686356902122498,1.5638046264648438,1.5441973209381104,-0.0196073055267334,0.02100956067442894,0.0195907074958086,-0.0014188531786203384,0.44583335518836975,0.44583335518836975,0.0
140,358.0,464.0,106.0,0.22050732374191284,0.23388373851776123,0.013376414775848389,1.5584627389907837,1.5411332845687866,-0.01732945442199707,0.02081545628607273,0.019963916391134262,-0.0008515398949384689,0.44583335518836975,0.44583335518836975,0.0
141,367.0,474.0,107.0,0.21997855603694916,0.24938181042671204,0.02940325438976288,1.562525749206543,1.539482593536377,-0.023043155670166016,0.020700877532362938,0.019869014620780945,-0.0008318629115819931,0.44583335518836975,0.44583335518836975,0.0
142,361.0,490.0,129.0,0.22001957893371582,0.2593206763267517,0.03930109739303589,1.5548806190490723,1.5330023765563965,-0.02187824249267578,0.021074753254652023,0.020275700837373734,-0.0007990524172782898,0.44583335518836975,0.44583335518836975,0.0
143,375.0,475.0,100.0,0.22802677750587463,0.24688418209552765,0.018857404589653015,1.5564968585968018,1.5278948545455933,-0.028602004051208496,0.020733732730150223,0.020591020584106445,-0.00014271214604377747,0.44583335518836975,0.44583335518836975,0.0
144,366.0,475.0,109.0,0.2201637625694275,0.23550772666931152,0.015343964099884033,1.557931900024414,1.5284535884857178,-0.02947831153869629,0.020642772316932678,0.020853137597441673,0.00021036528050899506,0.44583335518836975,0.44583335518836975,0.0
145,337.0,449.0,112.0,0.2178892195224762,0.23961520195007324,0.021725982427597046,1.5853550434112549,1.5265941619873047,-0.058760881423950195,0.020291831344366074,0.020824236795306206,0.0005324054509401321,0.44583335518836975,0.44583335518836975,0.0
146,340.0,463.0,123.0,0.21347293257713318,0.24687981605529785,0.03340688347816467,1.5844039916992188,1.526426911354065,-0.05797708034515381,0.01998603716492653,0.020567651838064194,0.0005816146731376648,0.44583335518836975,0.44583335518836975,0.0
147,326.0,454.0,128.0,0.2160567343235016,0.24972698092460632,0.033670246601104736,1.6001091003417969,1.5303508043289185,-0.06975829601287842,0.02006518840789795,0.020757362246513367,0.0006921738386154175,0.44583335518836975,0.44583335518836975,0.0
148,358.0,440.0,82.0,0.210176020860672,0.2427060604095459,0.0325300395488739,1.5927642583847046,1.5514638423919678,-0.041300415992736816,0.019608935341238976,0.020679401233792305,0.0010704658925533295,0.44583335518836975,0.44583335518836975,0.0
149,394.0,457.0,63.0,0.22483420372009277,0.24793118238449097,0.023096978664398193,1.5739200115203857,1.5455397367477417,-0.028380274772644043,0.01934666745364666,0.020282171666622162,0.000935504212975502,0.44583335518836975,0.44583335518836975,0.0
150,374.0,462.0,88.0,0.22751885652542114,0.24632591009140015,0.018807053565979004,1.560225009918213,1.5421161651611328,-0.018108844757080078,0.020369667559862137,0.02054884284734726,0.00017917528748512268,0.44583335518836975,0.44583335518836975,0.0
151,368.0,477.0,109.0,0.22056493163108826,0.2469014972448349,0.026336565613746643,1.5541682243347168,1.5412038564682007,-0.012964367866516113,0.020897336304187775,0.01972045749425888,-0.001176878809928894,0.44583335518836975,0.44583335518836975,0.0
152,373.0,444.0,71.0,0.21702080965042114,0.24330204725265503,0.026281237602233887,1.546514630317688,1.5376076698303223,-0.008906960487365723,0.021497022360563278,0.020092416554689407,-0.0014046058058738708,0.44583335518836975,0.44583335518836975,0.0
153,330.0,459.0,129.0,0.21015509963035583,0.25605809688568115,0.04590299725532532,1.5567450523376465,1.545142650604248,-0.011602401733398438,0.02171977236866951,0.02004203386604786,-0.0016777385026216507,0.44583335518836975,0.44583335518836975,0.0
154,338.0,483.0,145.0,0.21558994054794312,0.25351178646087646,0.03792184591293335,1.5587739944458008,1.525625228881836,-0.033148765563964844,0.021285705268383026,0.02042810060083866,-0.0008576046675443649,0.44583335518836975,0.44583335518836975,0.0
155,363.0,434.0,71.0,0.21333426237106323,0.2420683056116104,0.02873404324054718,1.5576393604278564,1.542348861694336,-0.015290498733520508,0.021127469837665558,0.02072320319712162,-0.0004042666405439377,0.44583335518836975,0.44583335518836975,0.0
156,347.0,426.0,79.0,0.2108640819787979,0.240016371011734,0.029152289032936096,1.5675183534622192,1.5545408725738525,-0.0129774808883667,0.02129869908094406,0.020361999049782753,-0.0009367000311613083,0.44583335518836975,0.44583335518836975,0.0
157,318.0,478.0,160.0,0.20795029401779175,0.24813517928123474,0.04018488526344299,1.5958952903747559,1.5151666402816772,-0.08072865009307861,0.021304678171873093,0.02030770294368267,-0.000996975228190422,0.44583335518836975,0.44583335518836975,0.0
158,348.0,461.0,113.0,0.21839019656181335,0.2451913058757782,0.026801109313964844,1.595660924911499,1.5128955841064453,-0.08276534080505371,0.020851705223321915,0.02083749696612358,-1.420825719833374e-05,0.44583335518836975,0.44583335518836975,0.0
159,360.0,476.0,116.0,0.21644389629364014,0.2505015432834625,0.03405764698982239,1.5884333848953247,1.5118528604507446,-0.07658052444458008,0.020915132015943527,0.020421499386429787,-0.0004936326295137405,0.44583335518836975,0.44583335518836975,0.0
160,371.0,449.0,78.0,0.21990598738193512,0.23986658453941345,0.019960597157478333,1.576656460762024,1.5177174806594849,-0.05893898010253906,0.020796509459614754,0.02078895829617977,-7.5511634349823e-06,0.44583335518836975,0.44583335518836975,0.0
161,353.0,473.0,120.0,0.21831314265727997,0.24545788764953613,0.027144744992256165,1.5819761753082275,1.540863275527954,-0.04111289978027344,0.020915040746331215,0.020546184852719307,-0.00036885589361190796,0.44583335518836975,0.44583335518836975,0.0
162,366.0,469.0,103.0,0.2237495332956314,0.24610978364944458,0.02236025035381317,1.5851854085922241,1.5435466766357422,-0.041638731956481934,0.020733164623379707,0.019944461062550545,-0.0007887035608291626,0.44583335518836975,0.44583335518836975,0.0
163,359.0,460.0,101.0,0.21684330701828003,0.2423907220363617,0.025547415018081665,1.5777390003204346,1.536898136138916,-0.040840864181518555,0.020566057413816452,0.020204603672027588,-0.00036145374178886414,0.44583335518836975,0.44583335518836975,0.0
164,361.0,450.0,89.0,0.20667299628257751,0.238075852394104,0.03140285611152649,1.5645520687103271,1.558026909828186,-0.006525158882141113,0.020957179367542267,0.02020222879946232,-0.0007549505680799484,0.44583335518836975,0.44583335518836975,0.0
165,358.0,462.0,104.0,0.21510373055934906,0.24197420477867126,0.026870474219322205,1.5732282400131226,1.5587964057922363,-0.01443183422088623,0.021020006388425827,0.02050383761525154,-0.0005161687731742859,0.44583335518836975,0.44583335518836975,0.0
166,359.0,450.0,91.0,0.22760158777236938,0.24684835970401764,0.019246771931648254,1.5848517417907715,1.5401623249053955,-0.04468941688537598,0.02050630748271942,0.020181886851787567,-0.00032442063093185425,0.44583335518836975,0.44583335518836975,0.0
167,365.0,441.0,76.0,0.21914881467819214,0.2514864504337311,0.03233763575553894,1.5966229438781738,1.5416147708892822,-0.0550081729888916,0.02030031755566597,0.020524296909570694,0.00022397935390472412,0.44583335518836975,0.44583335518836975,0.0
168,377.0,452.0,75.0,0.21974197030067444,0.25226902961730957,0.03252705931663513,1.5839492082595825,1.5552841424942017,-0.02866506576538086,0.019636519253253937,0.020288988947868347,0.0006524696946144104,0.44583335518836975,0.44583335518836975,0.0
169,380.0,454.0,74.0,0.2201794683933258,0.24582168459892273,0.025642216205596924,1.5792639255523682,1.5291566848754883,-0.05010724067687988,0.020002011209726334,0.020031064748764038,2.9053539037704468e-05,0.44583335518836975,0.44583335518836975,0.0
170,361.0,475.0,114.0,0.22030708193778992,0.2515830993652344,0.03127601742744446,1.5801942348480225,1.5101771354675293,-0.07001709938049316,0.020122673362493515,0.02069171518087387,0.0005690418183803558,0.44583335518836975,0.44583335518836975,0.0
171,359.0,476.0,117.0,0.21860745549201965,0.25227099657058716,0.033663541078567505,1.5710258483886719,1.5106439590454102,-0.06038188934326172,0.019796909764409065,0.021405916661024094,0.0016090068966150284,0.44583335518836975,0.44583335518836975,0.0
172,362.0,425.0,63.0,0.21327993273735046,0.24659156799316406,0.0333116352558136,1.5689321756362915,1.5497584342956543,-0.019173741340637207,0.02045309916138649,0.02126464620232582,0.0008115470409393311,0.44583335518836975,0.44583335518836975,0.0
173,363.0,429.0,66.0,0.2134268581867218,0.24101868271827698,0.027591824531555176,1.5799449682235718,1.5686509609222412,-0.011294007301330566,0.02026308886706829,0.020923569798469543,0.0006604809314012527,0.44583335518836975,0.44583335518836975,0.0
174,361.0,427.0,66.0,0.21198903024196625,0.24443218111991882,0.032443150877952576,1.5704686641693115,1.5683754682540894,-0.002093195915222168,0.02025819569826126,0.020420819520950317,0.0001626238226890564,0.44583335518836975,0.44583335518836975,0.0
175,367.0,459.0,92.0,0.21429847180843353,0.23984679579734802,0.02554832398891449,1.5699905157089233,1.5629558563232422,-0.007034659385681152,0.02017327956855297,0.019998755306005478,-0.00017452426254749298,0.44583335518836975,0.44583335518836975,0.0
176,356.0,441.0,85.0,0.2123415768146515,0.24072672426700592,0.02838514745235443,1.5802116394042969,1.5567500591278076,-0.023461580276489258,0.0202627070248127,0.019648607820272446,-0.0006140992045402527,0.44583335518836975,0.44583335518836975,0.0
177,353.0,427.0,74.0,0.21707843244075775,0.24655017256736755,0.029471740126609802,1.576584815979004,1.5826103687286377,0.006025552749633789,0.02025555446743965,0.019349806010723114,-0.0009057484567165375,0.44583335518836975,0.44583335518836975,0.0
178,352.0,474.0,122.0,0.21766188740730286,0.2524152994155884,0.03475341200828552,1.5983163118362427,1.561532735824585,-0.036783576011657715,0.020353080704808235,0.019177120178937912,-0.0011759605258703232,0.44583335518836975,0.44583335518836975,0.0
179,374.0,440.0,66.0,0.20973491668701172,0.24354535341262817,0.033810436725616455,1.5866707563400269,1.5595738887786865,-0.027096867561340332,0.01984807290136814,0.01931273192167282,-0.0005353409796953201,0.44583335518836975,0.44583335518836975,0.0
180,388.0,442.0,54.0,0.21998019516468048,0.24823832511901855,0.028258129954338074,1.567267656326294,1.542271614074707,-0.024996042251586914,0.02021627314388752,0.019222011789679527,-0.0009942613542079926,0.44583335518836975,0.44583335518836975,0.0
181,366.0,462.0,96.0,0.21849581599235535,0.2533571124076843,0.03486129641532898,1.5772678852081299,1.5201163291931152,-0.05715155601501465,0.02030625380575657,0.01939535140991211,-0.0009109023958444595,0.44583335518836975,0.44583335518836975,0.0
182,349.0,493.0,144.0,0.21610692143440247,0.2524121403694153,0.03630521893501282,1.5780067443847656,1.5097688436508179,-0.06823790073394775,0.020288849249482155,0.019828949123620987,-0.0004599001258611679,0.44583335518836975,0.44583335518836975,0.0
183,366.0,433.0,67.0,0.21345478296279907,0.2446201741695404,0.031165391206741333,1.5712988376617432,1.5329196453094482,-0.03837919235229492,0.02054472267627716,0.020392563194036484,-0.00015215948224067688,0.44583335518836975,0.44583335518836975,0.0
184,362.0,458.0,96.0,0.2212846279144287,0.24447864294052124,0.02319401502609253,1.57572603225708,1.540541648864746,-0.035184383392333984,0.020572099834680557,0.02019670605659485,-0.0003753937780857086,0.44583335518836975,0.44583335518836975,0.0
185,364.0,457.0,93.0,0.2177799940109253,0.2410491704940796,0.023269176483154297,1.5722157955169678,1.542931079864502,-0.02928471565246582,0.02055634930729866,0.020232107490301132,-0.0003242418169975281,0.44583335518836975,0.44583335518836975,0.0
186,361.0,467.0,106.0,0.21100863814353943,0.24368426203727722,0.03267562389373779,1.5794651508331299,1.5396449565887451,-0.039820194244384766,0.020200533792376518,0.0202198289334774,1.9295141100883484e-05,0.44583335518836975,0.44583335518836975,0.0
187,341.0,441.0,100.0,0.20779751241207123,0.24432373046875,0.03652621805667877,1.6027648448944092,1.5516557693481445,-0.05110907554626465,0.020183203741908073,0.020040176808834076,-0.0001430269330739975,0.44583335518836975,0.44583335518836975,0.0
188,364.0,448.0,84.0,0.2197147011756897,0.24313774704933167,0.023423045873641968,1.5892091989517212,1.572368860244751,-0.016840338706970215,0.020000221207737923,0.019555050879716873,-0.0004451703280210495,0.44583335518836975,0.44583335518836975,0.0
189,373.0,480.0,107.0,0.22566922008991241,0.2534627914428711,0.02779357135295868,1.5962798595428467,1.5562918186187744,-0.039988040924072266,0.019921056926250458,0.019267797470092773,-0.0006532594561576843,0.44583335518836975,0.44583335518836975,0.0
190,390.0,494.0,104.0,0.21738672256469727,0.25595349073410034,0.038566768169403076,1.5803838968276978,1.528842806816101,-0.05154109001159668,0.019993413239717484,0.019809022545814514,-0.00018439069390296936,0.44583335518836975,0.44583335518836975,0.0
191,384.0,472.0,88.0,0.21372660994529724,0.24532568454742432,0.031599074602127075,1.5594120025634766,1.5467009544372559,-0.012711048126220703,0.020335379987955093,0.020712152123451233,0.0003767721354961395,0.44583335518836975,0.44583335518836975,0.0
192,329.0,474.0,145.0,0.2114226520061493,0.2516328990459442,0.04021024703979492,1.575703740119934,1.5254926681518555,-0.05021107196807861,0.020960982888936996,0.020369183272123337,-0.0005917996168136597,0.44583335518836975,0.44583335518836975,0.0
193,327.0,461.0,134.0,0.20887264609336853,0.25088709592819214,0.04201444983482361,1.5985424518585205,1.5287654399871826,-0.06977701187133789,0.020741300657391548,0.020754095166921616,1.2794509530067444e-05,0.44583335518836975,0.44583335518836975,0.0
194,361.0,455.0,94.0,0.21847981214523315,0.24703645706176758,0.028556644916534424,1.5973032712936401,1.5340324640274048,-0.06327080726623535,0.02024935558438301,0.020751381292939186,0.0005020257085561752,0.44583335518836975,0.44583335518836975,0.0
195,358.0,444.0,86.0,0.21918636560440063,0.2400224655866623,0.020836099982261658,1.5904293060302734,1.532960295677185,-0.05746901035308838,0.01982027478516102,0.020729735493659973,0.0009094607084989548,0.44583335518836975,0.44583335518836975,0.0
196,370.0,479.0,109.0,0.22003600001335144,0.24292908608913422,0.022893086075782776,1.573054552078247,1.5389536619186401,-0.034100890159606934,0.019909024238586426,0.020192746073007584,0.00028372183442115784,0.44583335518836975,0.44583335518836975,0.0
197,333.0,457.0,124.0,0.21612270176410675,0.2540262043476105,0.03790350258350372,1.5984394550323486,1.5420221090316772,-0.05641734600067139,0.02067016437649727,0.020387988537549973,-0.00028217583894729614,0.44583335518836975,0.44583335518836975,0.0
198,353.0,460.0,107.0,0.22024212777614594,0.24562489986419678,0.025382772088050842,1.5944812297821045,1.5492339134216309,-0.04524731636047363,0.020606212317943573,0.020084485411643982,-0.0005217269062995911,0.44583335518836975,0.44583335518836975,0.0
199,377.0,461.0,84.0,0.21559718251228333,0.2407962679862976,0.025199085474014282,1.59090256690979,1.5497522354125977,-0.04115033149719238,0.020848898217082024,0.020079810172319412,-0.0007690880447626114,0.44583335518836975,0.44583335518836975,0.0
200,358.0,442.0,84.0,0.21721351146697998,0.24510645866394043,0.02789294719696045,1.5826644897460938,1.5466512441635132,-0.036013245582580566,0.021154675632715225,0.020344387739896774,-0.0008102878928184509,0.44583335518836975,0.44583335518836975,0.0
201,375.0,442.0,67.0,0.22638967633247375,0.23591895401477814,0.009529277682304382,1.564913034439087,1.5430567264556885,-0.021856307983398438,0.021236196160316467,0.02000179886817932,-0.001234397292137146,0.44583335518836975,0.44583335518836975,0.0
202,358.0,439.0,81.0,0.2221362590789795,0.2394595742225647,0.017323315143585205,1.5715141296386719,1.5586696863174438,-0.012844443321228027,0.021638305857777596,0.020182736217975616,-0.001455569639801979,0.44583335518836975,0.44583335518836975,0.0
203,380.0,443.0,63.0,0.20803207159042358,0.24545897543430328,0.0374269038438797,1.564151406288147,1.546958565711975,-0.017192840576171875,0.021863175556063652,0.019908640533685684,-0.001954535022377968,0.44583335518836975,0.44583335518836975,0.0
204,364.0,456.0,92.0,0.2151728868484497,0.2493106871843338,0.034137800335884094,1.5578889846801758,1.5514659881591797,-0.006422996520996094,0.021891724318265915,0.019496720284223557,-0.0023950040340423584,0.44583335518836975,0.44583335518836975,0.0
205,358.0,447.0,89.0,0.22432264685630798,0.24046725034713745,0.016144603490829468,1.5603257417678833,1.5594265460968018,-0.000899195671081543,0.021409086883068085,0.019949916750192642,-0.0014591701328754425,0.44583335518836975,0.44583335518836975,0.0
206,355.0,440.0,85.0,0.22021225094795227,0.23614394664764404,0.015931695699691772,1.5766135454177856,1.5648198127746582,-0.011793732643127441,0.02121029421687126,0.019987529143691063,-0.0012227650731801987,0.44583335518836975,0.44583335518836975,0.0
207,360.0,450.0,90.0,0.2157725840806961,0.24653324484825134,0.030760660767555237,1.5729691982269287,1.5431879758834839,-0.029781222343444824,0.021016357466578484,0.019986750558018684,-0.0010296069085597992,0.44583335518836975,0.44583335518836975,0.0
208,356.0,451.0,95.0,0.2117958962917328,0.2410115897655487,0.029215693473815918,1.5908424854278564,1.5256165266036987,-0.06522595882415771,0.02053578570485115,0.020130321383476257,-0.0004054643213748932,0.44583335518836975,0.44583335518836975,0.0
209,351.0,474.0,123.0,0.21690703928470612,0.2452833652496338,0.028376325964927673,1.5966498851776123,1.5132942199707031,-0.08335566520690918,0.020492397248744965,0.020411279052495956,-8.111819624900818e-05,0.44583335518836975,0.44583335518836975,0.0
210,375.0,466.0,91.0,0.2178344577550888,0.259185791015625,0.041351333260536194,1.5852572917938232,1.5029520988464355,-0.0823051929473877,0.020094115287065506,0.02065618336200714,0.0005620680749416351,0.44583335518836975,0.44583335518836975,0.0
211,359.0,422.0,63.0,0.22007471323013306,0.23965272307395935,0.019578009843826294,1.5894591808319092,1.5326099395751953,-0.05684924125671387,0.020019758492708206,0.020801125094294548,0.0007813666015863419,0.44583335518836975,0.44583335518836975,0.0
212,401.0,438.0,37.0,0.23214349150657654,0.24208159744739532,0.009938105940818787,1.558244228363037,1.5391156673431396,-0.01912856101989746,0.019872764125466347,0.02082352340221405,0.0009507592767477036,0.44583335518836975,0.44583335518836975,0.0
213,396.0,424.0,28.0,0.22763174772262573,0.23973457515239716,0.012102827429771423,1.5479578971862793,1.557998538017273,0.010040640830993652,0.02065257355570793,0.020447418093681335,-0.00020515546202659607,0.44583335518836975,0.44583335518836975,0.0
214,368.0,449.0,81.0,0.22076736390590668,0.24107371270656586,0.02030634880065918,1.5480852127075195,1.5368633270263672,-0.011221885681152344,0.020855119451880455,0.02026682160794735,-0.0005882978439331055,0.44583335518836975,0.44583335518836975,0.0
215,340.0,441.0,101.0,0.22058919072151184,0.2379249930381775,0.01733580231666565,1.5781402587890625,1.5474554300308228,-0.030684828758239746,0.021130861714482307,0.020642109215259552,-0.0004887524992227554,0.44583335518836975,0.44583335518836975,0.0
216,333.0,449.0,116.0,0.20946428179740906,0.23903688788414001,0.029572606086730957,1.5850409269332886,1.5434942245483398,-0.04154670238494873,0.020210333168506622,0.020042292773723602,-0.00016804039478302002,0.44583335518836975,0.44583335518836975,0.0
217,373.0,453.0,80.0,0.21843953430652618,0.24468232691287994,0.02624279260635376,1.5784943103790283,1.5373207330703735,-0.041173577308654785,0.019799601286649704,0.02029142528772354,0.0004918240010738373,0.44583335518836975,0.44583335518836975,0.0
218,394.0,444.0,50.0,0.22604739665985107,0.25146329402923584,0.025415897369384766,1.5620982646942139,1.5416991710662842,-0.020399093627929688,0.01987593062222004,0.020698200911283493,0.0008222702890634537,0.44583335518836975,0.44583335518836975,0.0
219,390.0,478.0,88.0,0.22323369979858398,0.24995356798171997,0.026719868183135986,1.555001139640808,1.5385633707046509,-0.016437768936157227,0.02012736350297928,0.020304370671510696,0.00017700716853141785,0.44583335518836975,0.44583335518836975,0.0
220,361.0,499.0,138.0,0.22446036338806152,0.24797767400741577,0.023517310619354248,1.553505778312683,1.5260486602783203,-0.027457118034362793,0.020609505474567413,0.020433012396097183,-0.0001764930784702301,0.44583335518836975,0.44583335518836975,0.0
221,336.0,451.0,115.0,0.20819012820720673,0.2414921224117279,0.03330199420452118,1.5919069051742554,1.530712366104126,-0.061194539070129395,0.020711340010166168,0.02108234167098999,0.000371001660823822,0.44583335518836975,0.44583335518836975,0.0
222,365.0,457.0,92.0,0.21402356028556824,0.24711108207702637,0.03308752179145813,1.5858876705169678,1.5275319814682007,-0.05835568904876709,0.019852928817272186,0.020814858376979828,0.0009619295597076416,0.44583335518836975,0.44583335518836975,0.0
223,356.0,459.0,103.0,0.21156980097293854,0.24154481291770935,0.029975011944770813,1.5932695865631104,1.535243272781372,-0.05802631378173828,0.019814779981970787,0.02054668217897415,0.0007319021970033646,0.44583335518836975,0.44583335518836975,0.0
224,381.0,437.0,56.0,0.21640263497829437,0.23952138423919678,0.023118749260902405,1.5934476852416992,1.534891128540039,-0.058556556701660156,0.019453484565019608,0.020646510645747185,0.0011930260807275772,0.44583335518836975,0.44583335518836975,0.0
225,365.0,457.0,92.0,0.2154587209224701,0.24720561504364014,0.031746894121170044,1.5962462425231934,1.535851240158081,-0.060395002365112305,0.01950390823185444,0.020699497312307358,0.001195589080452919,0.44583335518836975,0.44583335518836975,0.0
226,387.0,464.0,77.0,0.2220194786787033,0.24706315994262695,0.025043681263923645,1.5835461616516113,1.5393247604370117,-0.04422140121459961,0.019457541406154633,0.020725052803754807,0.001267511397600174,0.44583335518836975,0.44583335518836975,0.0
227,363.0,454.0,91.0,0.21572166681289673,0.24156694114208221,0.025845274329185486,1.571605920791626,1.5475609302520752,-0.02404499053955078,0.019714226946234703,0.020648322999477386,0.0009340960532426834,0.44583335518836975,0.44583335518836975,0.0
228,364.0,424.0,60.0,0.2149774730205536,0.23908497393131256,0.024107500910758972,1.5770983695983887,1.5608524084091187,-0.01624596118927002,0.020485442131757736,0.020696859806776047,0.00021141767501831055,0.44583335518836975,0.44583335518836975,0.0
229,380.0,457.0,77.0,0.22120347619056702,0.2365228235721588,0.015319347381591797,1.5683119297027588,1.5607938766479492,-0.00751805305480957,0.020277805626392365,0.019989013671875,-0.0002887919545173645,0.44583335518836975,0.44583335518836975,0.0
230,383.0,438.0,55.0,0.22237363457679749,0.23640695214271545,0.014033317565917969,1.558201789855957,1.569399356842041,0.011197566986083984,0.019889749586582184,0.020071785897016525,0.00018203631043434143,0.44583335518836975,0.44583335518836975,0.0
231,381.0,444.0,63.0,0.21180427074432373,0.2539965510368347,0.042192280292510986,1.544293999671936,1.5802429914474487,0.035948991775512695,0.020367909222841263,0.01953408308327198,-0.0008338261395692825,0.44583335518836975,0.44583335518836975,0.0
232,333.0,503.0,170.0,0.20756906270980835,0.25398096442222595,0.0464119017124176,1.5691626071929932,1.5559773445129395,-0.013185262680053711,0.02028610184788704,0.018936194479465485,-0.0013499073684215546,0.44583335518836975,0.44583335518836975,0.0
233,399.0,473.0,74.0,0.22272974252700806,0.24394813179969788,0.02121838927268982,1.554617166519165,1.5562330484390259,0.0016158819198608398,0.019790954887866974,0.019329488277435303,-0.00046146661043167114,0.44583335518836975,0.44583335518836975,0.0
234,371.0,464.0,93.0,0.21775901317596436,0.23744550347328186,0.019686490297317505,1.5662615299224854,1.55061674118042,-0.01564478874206543,0.02049890160560608,0.01974204182624817,-0.0007568597793579102,0.44583335518836975,0.44583335518836975,0.0
235,333.0,463.0,130.0,0.21414633095264435,0.2443597912788391,0.030213460326194763,1.590238332748413,1.5333466529846191,-0.056891679763793945,0.02084691822528839,0.020098216831684113,-0.0007487013936042786,0.44583335518836975,0.44583335518836975,0.0
236,351.0,482.0,131.0,0.21758776903152466,0.24906229972839355,0.031474530696868896,1.5980031490325928,1.5150978565216064,-0.08290529251098633,0.02044207975268364,0.020539473742246628,9.739398956298828e-05,0.44583335518836975,0.44583335518836975,0.0
237,371.0,450.0,79.0,0.21967445313930511,0.24364697933197021,0.0239725261926651,1.6006426811218262,1.5348448753356934,-0.06579780578613281,0.02041424624621868,0.020958688110113144,0.0005444418638944626,0.44583335518836975,0.44583335518836975,0.0
238,349.0,473.0,124.0,0.21216538548469543,0.23764607310295105,0.025480687618255615,1.6053507328033447,1.5245449542999268,-0.08080577850341797,0.01980762928724289,0.020597808063030243,0.0007901787757873535,0.44583335518836975,0.44583335518836975,0.0
239,375.0,441.0,66.0,0.21392621099948883,0.238446444272995,0.024520233273506165,1.5812139511108398,1.528733730316162,-0.052480220794677734,0.01958017796278,0.021215001121163368,0.0016348231583833694,0.44583335518836975,0.44583335518836975,0.0
240,358.0,433.0,75.0,0.21995267271995544,0.2401086390018463,0.02015596628189087,1.5787146091461182,1.551225185394287,-0.027489423751831055,0.019928187131881714,0.020864611491560936,0.0009364243596792221,0.44583335518836975,0.44583335518836975,0.0
241,346.0,444.0,98.0,0.21599292755126953,0.24676266312599182,0.03076973557472229,1.5901670455932617,1.5617289543151855,-0.028438091278076172,0.020271599292755127,0.020546112209558487,0.00027451291680336,0.44583335518836975,0.44583335518836975,0.0
242,351.0,440.0,89.0,0.21492956578731537,0.24670617282390594,0.031776607036590576,1.605370283126831,1.5653815269470215,-0.03998875617980957,0.02031213976442814,0.019705230370163918,-0.0006069093942642212,0.44583335518836975,0.44583335518836975,0.0
243,398.0,453.0,55.0,0.2233334332704544,0.24219615757465363,0.01886272430419922,1.5738615989685059,1.5645060539245605,-0.009355545043945312,0.019816577434539795,0.019513219594955444,-0.0003033578395843506,0.44583335518836975,0.44583335518836975,0.0
244,375.0,452.0,77.0,0.21789716184139252,0.2389311045408249,0.021033942699432373,1.5725983381271362,1.5701240301132202,-0.0024743080139160156,0.02023007720708847,0.01964278146624565,-0.0005872957408428192,0.44583335518836975,0.44583335518836975,0.0
245,357.0,459.0,102.0,0.22019486129283905,0.23861762881278992,0.018422767519950867,1.5882952213287354,1.5695070028305054,-0.01878821849822998,0.020151983946561813,0.01989048905670643,-0.0002614948898553848,0.44583335518836975,0.44583335518836975,0.0
246,356.0,423.0,67.0,0.21151915192604065,0.22989362478256226,0.018374472856521606,1.6013424396514893,1.5828758478164673,-0.018466591835021973,0.02005903422832489,0.019990578293800354,-6.845593452453613e-05,0.44583335518836975,0.44583335518836975,0.0
247,353.0,465.0,112.0,0.20522648096084595,0.24235200881958008,0.03712552785873413,1.588321566581726,1.5744118690490723,-0.013909697532653809,0.019898338243365288,0.01942923665046692,-0.00046910159289836884,0.44583335518836975,0.44583335518836975,0.0
248,343.0,450.0,107.0,0.2079257369041443,0.23702546954154968,0.029099732637405396,1.594107747077942,1.5599178075790405,-0.03418993949890137,0.020340437069535255,0.019758960232138634,-0.0005814768373966217,0.44583335518836975,0.44583335518836975,0.0
249,372.0,454.0,82.0,0.22431714832782745,0.24923430383205414,0.024917155504226685,1.5811997652053833,1.5610597133636475,-0.02014005184173584,0.01989249512553215,0.01979183405637741,-0.00010066106915473938,0.44583335518836975,0.44583335518836975,0.0
250,400.0,463.0,63.0,0.23199400305747986,0.24619050323963165,0.014196500182151794,1.5573890209197998,1.5566596984863281,-0.0007293224334716797,0.020290033891797066,0.020160630345344543,-0.00012940354645252228,0.44583335518836975,0.44583335518836975,0.0
251,406.0,477.0,71.0,0.2336016744375229,0.24339509010314941,0.009793415665626526,1.5433950424194336,1.540877342224121,-0.0025177001953125,0.020539509132504463,0.01997581124305725,-0.0005636978894472122,0.44583335518836975,0.44583335518836975,0.0
252,358.0,486.0,128.0,0.22242911159992218,0.25473564863204956,0.03230653703212738,1.5572638511657715,1.5223032236099243,-0.03496062755584717,0.021508026868104935,0.0203770212829113,-0.001131005585193634,0.44583335518836975,0.44583335518836975,0.0
253,357.0,445.0,88.0,0.2094530165195465,0.23644819855690002,0.026995182037353516,1.5757813453674316,1.5346306562423706,-0.041150689125061035,0.021110299974679947,0.020539242774248123,-0.0005710572004318237,0.44583335518836975,0.44583335518836975,0.0
254,364.0,454.0,90.0,0.21346557140350342,0.23405317962169647,0.020587608218193054,1.5782550573349,1.528365969657898,-0.04988908767700195,0.020929459482431412,0.02051507867872715,-0.0004143808037042618,0.44583335518836975,0.44583335518836975,0.0
255,364.0,446.0,82.0,0.21220475435256958,0.23949779570102692,0.027293041348457336,1.547766089439392,1.5378309488296509,-0.009935140609741211,0.02137414738535881,0.02058398723602295,-0.0007901601493358612,0.44583335518836975,0.44583335518836975,0.0
256,374.0,431.0,57.0,0.22032909095287323,0.23752152919769287,0.01719243824481964,1.545710802078247,1.5412466526031494,-0.004464149475097656,0.02143717184662819,0.02053314447402954,-0.0009040273725986481,0.44583335518836975,0.44583335518836975,0.0
257,353.0,465.0,112.0,0.2173108607530594,0.24730557203292847,0.02999471127986908,1.552677869796753,1.5552940368652344,0.0026161670684814453,0.02161639928817749,0.02020289935171604,-0.0014134999364614487,0.44583335518836975,0.44583335518836975,0.0
258,368.0,462.0,94.0,0.2141190767288208,0.24125495553016663,0.027135878801345825,1.5525113344192505,1.565962553024292,0.013451218605041504,0.02129707857966423,0.019672635942697525,-0.0016244426369667053,0.44583335518836975,0.44583335518836975,0.0
259,355.0,456.0,101.0,0.2197120189666748,0.24341470003128052,0.023702681064605713,1.5650784969329834,1.563148021697998,-0.0019304752349853516,0.021314319223165512,0.019858036190271378,-0.0014562830328941345,0.44583335518836975,0.44583335518836975,0.0
260,345.0,455.0,110.0,0.22091393172740936,0.24261069297790527,0.02169676125049591,1.5771108865737915,1.5689144134521484,-0.008196473121643066,0.021009687334299088,0.01973702944815159,-0.001272657886147499,0.44583335518836975,0.44583335518836975,0.0
261,365.0,426.0,61.0,0.22563159465789795,0.23624667525291443,0.01061508059501648,1.5876578092575073,1.5787922143936157,-0.008865594863891602,0.020909246057271957,0.019797056913375854,-0.001112189143896103,0.44583335518836975,0.44583335518836975,0.0
262,389.0,466.0,77.0,0.22554786503314972,0.2379838526248932,0.01243598759174347,1.5854480266571045,1.5655323266983032,-0.01991569995880127,0.020680759102106094,0.019469263032078743,-0.0012114960700273514,0.44583335518836975,0.44583335518836975,0.0
263,386.0,453.0,67.0,0.22311002016067505,0.2504388689994812,0.027328848838806152,1.5591773986816406,1.5633785724639893,0.004201173782348633,0.020276619121432304,0.019620582461357117,-0.0006560366600751877,0.44583335518836975,0.44583335518836975,0.0
264,399.0,488.0,89.0,0.2255326360464096,0.2545166313648224,0.02898399531841278,1.556530237197876,1.5396596193313599,-0.016870617866516113,0.020592331886291504,0.01928589679300785,-0.0013064350932836533,0.44583335518836975,0.44583335518836975,0.0
265,358.0,477.0,119.0,0.21833568811416626,0.24752506613731384,0.029189378023147583,1.5594003200531006,1.5372467041015625,-0.022153615951538086,0.020778220146894455,0.0197276808321476,-0.0010505393147468567,0.44583335518836975,0.44583335518836975,0.0
266,370.0,493.0,123.0,0.21567127108573914,0.24249997735023499,0.02682870626449585,1.550846815109253,1.522467851638794,-0.028378963470458984,0.020510490983724594,0.02023433707654476,-0.00027615390717983246,0.44583335518836975,0.44583335518836975,0.0
267,358.0,448.0,90.0,0.21010498702526093,0.2335919737815857,0.023486986756324768,1.5543633699417114,1.52633798122406,-0.028025388717651367,0.020922064781188965,0.01997585967183113,-0.0009462051093578339,0.44583335518836975,0.44583335518836975,0.0
268,353.0,441.0,88.0,0.21231549978256226,0.22913619875907898,0.016820698976516724,1.5515305995941162,1.53573477268219,-0.01579582691192627,0.021125085651874542,0.020212262868881226,-0.0009128227829933167,0.44583335518836975,0.44583335518836975,0.0
269,348.0,430.0,82.0,0.21322819590568542,0.22314520180225372,0.009917005896568298,1.5811078548431396,1.5445469617843628,-0.036560893058776855,0.021263010799884796,0.019897356629371643,-0.001365654170513153,0.44583335518836975,0.44583335518836975,0.0
270,345.0,445.0,100.0,0.20900210738182068,0.2353712022304535,0.026369094848632812,1.6030831336975098,1.5475966930389404,-0.055486440658569336,0.020709818229079247,0.02019307017326355,-0.0005167480558156967,0.44583335518836975,0.44583335518836975,0.0
271,359.0,455.0,96.0,0.21414659917354584,0.2461475282907486,0.03200092911720276,1.598912239074707,1.5486871004104614,-0.050225138664245605,0.02062677964568138,0.020321661606431007,-0.00030511803925037384,0.44583335518836975,0.44583335518836975,0.0
272,347.0,461.0,114.0,0.21510039269924164,0.25513017177581787,0.04002977907657623,1.5961320400238037,1.5487375259399414,-0.047394514083862305,0.02054111286997795,0.020495502278208733,-4.5610591769218445e-05,0.44583335518836975,0.44583335518836975,0.0
273,347.0,458.0,111.0,0.21810351312160492,0.2435503900051117,0.025446876883506775,1.608994722366333,1.5414143800735474,-0.06758034229278564,0.020920801907777786,0.02019188366830349,-0.0007289182394742966,0.44583335518836975,0.44583335518836975,0.0
274,392.0,454.0,62.0,0.22157946228981018,0.24022440612316132,0.018644943833351135,1.5880697965621948,1.542833685874939,-0.04523611068725586,0.020781729370355606,0.020616622641682625,-0.00016510672867298126,0.44583335518836975,0.44583335518836975,0.0
275,390.0,475.0,85.0,0.2139059454202652,0.23783698678016663,0.023931041359901428,1.5686873197555542,1.5355985164642334,-0.0330888032913208,0.021201714873313904,0.02059105411171913,-0.0006106607615947723,0.44583335518836975,0.44583335518836975,0.0
276,376.0,451.0,75.0,0.2143523395061493,0.23615717887878418,0.021804839372634888,1.5684916973114014,1.545701503753662,-0.022790193557739258,0.021308425813913345,0.021028269082307816,-0.0002801567316055298,0.44583335518836975,0.44583335518836975,0.0
277,358.0,430.0,72.0,0.21363458037376404,0.24173416197299957,0.028099581599235535,1.5729414224624634,1.553766131401062,-0.019175291061401367,0.021230164915323257,0.020926401019096375,-0.00030376389622688293,0.44583335518836975,0.44583335518836975,0.0
278,365.0,444.0,79.0,0.22294767200946808,0.23826539516448975,0.015317723155021667,1.5486655235290527,1.5494705438613892,0.0008050203323364258,0.020984908565878868,0.02030293270945549,-0.000681975856423378,0.44583335518836975,0.44583335518836975,0.0
279,368.0,420.0,52.0,0.22925306856632233,0.2331276535987854,0.0038745850324630737,1.56129789352417,1.5658118724822998,0.004513978958129883,0.02058294601738453,0.020158890634775162,-0.00042405538260936737,0.44583335518836975,0.44583335518836975,0.0
280,339.0,462.0,123.0,0.20836609601974487,0.24321985244750977,0.03485375642776489,1.5846538543701172,1.548284888267517,-0.0363689661026001,0.02054610289633274,0.020004725083708763,-0.0005413778126239777,0.44583335518836975,0.44583335518836975,0.0
281,337.0,488.0,151.0,0.21508657932281494,0.24863523244857788,0.03354865312576294,1.5993322134017944,1.5366020202636719,-0.06273019313812256,0.02020309492945671,0.02058253064751625,0.0003794357180595398,0.44583335518836975,0.44583335518836975,0.0
282,379.0,459.0,80.0,0.2137344777584076,0.24858590960502625,0.03485143184661865,1.5879123210906982,1.5518306493759155,-0.036081671714782715,0.020078890025615692,0.021019352599978447,0.0009404625743627548,0.44583335518836975,0.44583335518836975,0.0
283,353.0,444.0,91.0,0.21025970578193665,0.24571126699447632,0.03545156121253967,1.5974868535995483,1.5500909090042114,-0.047395944595336914,0.020663712173700333,0.020514264702796936,-0.0001494474709033966,0.44583335518836975,0.44583335518836975,0.0
284,377.0,447.0,70.0,0.22368013858795166,0.25042688846588135,0.026746749877929688,1.6031880378723145,1.55726957321167,-0.04591846466064453,0.020353175699710846,0.020664606243371964,0.00031143054366111755,0.44583335518836975,0.44583335518836975,0.0
285,377.0,436.0,59.0,0.2166137397289276,0.24703353643417358,0.03041979670524597,1.5839006900787354,1.5673635005950928,-0.016537189483642578,0.020109161734580994,0.020484551787376404,0.00037539005279541016,0.44583335518836975,0.44583335518836975,0.0
286,360.0,475.0,115.0,0.21778593957424164,0.24457699060440063,0.026791051030158997,1.58103346824646,1.5557126998901367,-0.025320768356323242,0.020590059459209442,0.020203128457069397,-0.00038693100214004517,0.44583335518836975,0.44583335518836975,0.0
287,406.0,464.0,58.0,0.22352056205272675,0.24065284430980682,0.017132282257080078,1.5472304821014404,1.5566078424453735,0.009377360343933105,0.020872492343187332,0.020328979939222336,-0.0005435124039649963,0.44583335518836975,0.44583335518836975,0.0
288,349.0,443.0,94.0,0.21700479090213776,0.2420448213815689,0.025040030479431152,1.5667698383331299,1.555229902267456,-0.011539936065673828,0.021126948297023773,0.020358391106128693,-0.0007685571908950806,0.44583335518836975,0.44583335518836975,0.0
289,373.0,426.0,53.0,0.22267301380634308,0.23315487802028656,0.010481864213943481,1.5505037307739258,1.5647227764129639,0.014219045639038086,0.020695865154266357,0.020622972398996353,-7.289275527000427e-05,0.44583335518836975,0.44583335518836975,0.0
290,369.0,407.0,38.0,0.21487966179847717,0.22796639800071716,0.01308673620223999,1.5462948083877563,1.5759203433990479,0.029625535011291504,0.02069624327123165,0.020723070949316025,2.6827678084373474e-05,0.44583335518836975,0.44583335518836975,0.0
291,356.0,432.0,76.0,0.21007868647575378,0.2494874745607376,0.039408788084983826,1.5429943799972534,1.5661635398864746,0.02316915988922119,0.020991116762161255,0.019721249118447304,-0.0012698676437139511,0.44583335518836975,0.44583335518836975,0.0
292,340.0,438.0,98.0,0.22063949704170227,0.24924607574939728,0.028606578707695007,1.5670852661132812,1.5762007236480713,0.009115457534790039,0.021029813215136528,0.01982632838189602,-0.001203484833240509,0.44583335518836975,0.44583335518836975,0.0
293,359.0,459.0,100.0,0.21689473092556,0.24259543418884277,0.025700703263282776,1.5713444948196411,1.5574015378952026,-0.013942956924438477,0.02088554948568344,0.020019475370645523,-0.0008660741150379181,0.44583335518836975,0.44583335518836975,0.0
294,371.0,467.0,96.0,0.224456787109375,0.2412291169166565,0.016772329807281494,1.5729416608810425,1.5441837310791016,-0.028757929801940918,0.020665444433689117,0.020432688295841217,-0.0002327561378479004,0.44583335518836975,0.44583335518836975,0.0
295,366.0,460.0,94.0,0.2212141752243042,0.24517884850502014,0.023964673280715942,1.5846397876739502,1.54146409034729,-0.043175697326660156,0.020762521773576736,0.0207693912088871,6.8694353103637695e-06,0.44583335518836975,0.44583335518836975,0.0
296,348.0,472.0,124.0,0.21845823526382446,0.25133728981018066,0.0328790545463562,1.5920093059539795,1.5281842947006226,-0.06382501125335693,0.020488087087869644,0.02037540078163147,-0.00011268630623817444,0.44583335518836975,0.44583335518836975,0.0
297,387.0,469.0,82.0,0.2342742383480072,0.25148919224739075,0.017214953899383545,1.5890724658966064,1.5286004543304443,-0.06047201156616211,0.01959003508090973,0.020434588193893433,0.0008445531129837036,0.44583335518836975,0.44583335518836975,0.0
298,374.0,454.0,80.0,0.21802546083927155,0.24008634686470032,0.022060886025428772,1.5747331380844116,1.536810278892517,-0.03792285919189453,0.02027048170566559,0.020408136770129204,0.00013765506446361542,0.44583335518836975,0.44583335518836975,0.0
